public/decorative-corner.svg

<svg width="136" height="136" viewBox="0 0 136 136" fill="none" xmlns="http://www.w3.org/2000/svg">
<path d="M12.3791 62.9465C16.3791 59.3465 24.0792 59.1464 27.9791 62.8464C25.5792 63.0464 23.2791 64.4465 21.8791 66.4465C20.4791 68.5465 20.1792 71.1465 20.8791 73.4465C22.3791 78.0465 27.8791 80.4464 32.5792 79.6465C37.3791 78.8464 41.3791 75.6465 44.4791 71.9465C51.0792 64.2465 54.7791 54.0465 54.6792 43.9465C53.0792 47.7465 49.5792 51.3464 45.6792 52.6464C41.7791 53.9464 37.0792 52.8465 34.4791 49.7465C31.8791 46.6465 32.0792 41.3465 35.1792 38.7465C35.0792 41.2465 37.5792 43.5465 40.0792 43.9465C42.6792 44.2465 45.2791 42.9465 46.7791 40.9465C48.3791 38.9465 48.8791 36.2465 48.7791 33.7465C48.6792 31.2465 47.8791 28.7465 46.9791 26.3465C45.3791 22.1465 43.2791 18.0465 40.1792 14.7465C37.0792 11.4465 32.9791 8.94649 28.4791 8.44649C23.9791 7.94649 19.0792 9.64648 16.3791 13.2465C14.4791 15.8465 13.6792 19.3465 14.9791 22.2465C16.2791 25.1465 20.9791 28.4464 22.7791 25.8465C20.0792 29.8465 12.8791 32.1465 8.3791 30.4465C3.8791 28.7465 0.579176 24.2465 0.0791763 19.4465C-0.420824 14.6465 1.47908 9.74648 4.8791 6.24648C7.67915 3.34647 10.823 1.55153 15.3791 0.546463C16.9543 0.199002 17.8684 0.131512 19.4791 0.0464634C30.095 -0.514061 38.0792 4.04646 44.3791 11.0465C50.9791 18.5465 55.3791 25.4464 55.5792 38.3464C59.4791 50.3464 56.3791 64.0465 48.9791 74.3465C45.7791 78.8465 41.8791 82.7465 37.0792 85.3465C32.3791 87.8465 26.6792 89.0464 21.3791 87.8465C16.0792 86.6465 11.1792 82.9465 9.17915 77.9465C7.17915 72.8465 8.27913 66.5465 12.3791 62.9465Z" fill="white"/>
<path d="M53.9791 85.8465V81.2465H49.3791C29.7791 100.846 15.6792 98.9465 8.27913 91.5465L9.27913 98.6465C10.2791 106.246 18.5792 110.546 25.3791 107.046L31.4791 103.947L28.3791 110.046C24.8791 116.846 29.1792 125.046 36.7791 126.146L43.8791 127.146C36.3791 119.646 34.4791 105.446 53.9791 85.8465Z" fill="white"/>
<path d="M21.3791 124.646H10.6792V113.947H21.3791V124.646Z" fill="white"/>
<path d="M69.8791 65.4465H84.2791L84.3791 50.9465L69.8791 51.0465V65.4465Z" fill="white"/>
<path d="M135.379 115.946C135.979 106.646 131.379 97.2465 124.379 91.0465C116.879 84.4465 109.979 80.0464 97.0792 79.8465C85.0792 75.9465 71.3791 79.0465 61.0792 86.4465C56.6792 89.6465 52.6792 93.5464 50.0792 98.3465C47.4792 103.146 46.3791 108.746 47.5792 114.046C48.7791 119.346 52.3791 124.146 57.4792 126.246C62.4792 128.246 68.8791 127.146 72.4792 123.046C76.0792 118.946 76.3791 111.346 72.5792 107.446C72.3791 109.846 71.0792 112.146 68.9792 113.546C66.8791 114.946 64.2791 115.246 61.9792 114.546C57.3791 113.046 54.9792 107.546 55.7791 102.846C56.5792 98.1465 59.7791 94.1465 63.4792 90.9465C71.1792 84.3465 81.3791 80.6465 91.4792 80.7465C87.6792 82.3465 84.0792 85.9465 82.7791 89.7465C81.4792 93.6465 82.4791 98.3465 85.6792 100.946C88.8791 103.546 94.0792 103.346 96.6792 100.246C94.1792 100.346 91.8791 97.8465 91.4792 95.3465C91.0792 92.8465 92.3791 90.2464 94.4792 88.6464C96.4792 87.1464 99.1792 86.5464 101.679 86.6464C104.179 86.7464 106.679 87.5465 109.079 88.4465C113.279 90.0465 117.379 92.1465 120.679 95.2465C123.979 98.3465 126.479 102.446 126.979 106.946C127.479 111.446 125.779 116.246 122.179 119.046C119.679 120.946 116.079 121.746 113.179 120.446C110.279 119.146 106.979 114.446 109.579 112.646C105.579 115.346 103.279 122.546 104.979 127.046C106.679 131.546 111.179 134.746 115.979 135.346C120.779 135.846 125.679 133.946 129.179 130.546C132.079 127.746 133.979 124.046 134.879 120.046C135.215 118.553 135.308 117.082 135.366 116.147L135.379 115.946Z" fill="white"/>
</svg>

<svg width="136" height="136" fill="none" xmlns="http://www.w3.org/2000/svg"><path d="M12.38 62.947c4-3.6 11.7-3.8 15.6-.1-2.4.2-4.7 1.6-6.1 3.6-1.4 2.1-1.7 4.7-1 7 1.5 4.6 7 7 11.7 6.2 4.8-.8 8.8-4 11.9-7.7 6.6-7.7 10.3-17.9 10.2-28-1.6 3.8-5.1 7.4-9 8.7-3.9 1.3-8.6.2-11.2-2.9-2.6-3.1-2.4-8.4.7-11-.1 2.5 2.4 4.8 4.9 5.2 2.6.3 5.2-1 6.7-3 1.6-2 2.1-4.7 2-7.2-.1-2.5-.9-5-1.8-7.4-1.6-4.2-3.7-8.3-6.8-11.6-3.1-3.3-7.2-5.8-11.7-6.3-4.5-.5-9.4 1.2-12.1 4.8-1.9 2.6-2.7 6.1-1.4 9 1.3 2.9 6 6.2 7.8 3.6-2.7 4-9.9 6.3-14.4 4.6-4.5-1.7-7.8-6.2-8.3-11-.5-4.8 1.4-9.7 4.8-13.2 2.8-2.9 5.943-4.695 10.5-5.7 1.574-.348 2.488-.415 4.1-.5 10.615-.561 18.6 4 24.9 11 6.6 7.5 11 14.4 11.2 27.3 3.9 12 .8 25.7-6.6 36-3.2 4.5-7.1 8.4-11.9 11-4.7 2.5-10.4 3.7-15.7 2.5-5.3-1.2-10.2-4.9-12.2-9.9-2-5.1-.9-11.4 3.2-15z" fill="#fff"/><path d="M53.98 85.847v-4.6h-4.6c-19.6 19.599-33.7 17.7-41.1 10.3l1 7.1c1 7.599 9.3 11.899 16.1 8.399l6.1-3.099-3.1 6.099c-3.5 6.8.8 15 8.4 16.1l7.1 1c-7.5-7.5-9.4-21.7 10.1-41.3z" fill="#fff"/><path d="M21.38 124.646h-10.7v-10.699h10.7v10.699zM69.88 65.447h14.4l.1-14.5-14.5.1v14.4zM135.379 115.946c.6-9.3-4-18.7-11-24.9-7.5-6.6-14.4-11-27.3-11.2-12-3.9-25.7-.8-36 6.6-4.4 3.2-8.4 7.1-11 11.9-2.6 4.8-3.7 10.4-2.5 15.7 1.2 5.3 4.8 10.1 9.9 12.2 5 2 11.4.9 15-3.2 3.6-4.1 3.9-11.7.1-15.6a8.2 8.2 0 01-3.6 6.1c-2.1 1.4-4.7 1.7-7 1-4.6-1.5-7-7-6.2-11.7.8-4.7 4-8.7 7.7-11.9 7.7-6.6 17.9-10.3 28-10.2-3.8 1.6-7.4 5.2-8.7 9-1.3 3.9-.3 8.6 2.9 11.2 3.2 2.6 8.4 2.4 11-.7-2.5.1-4.8-2.4-5.2-4.9-.4-2.5.9-5.1 3-6.7 2-1.5 4.7-2.1 7.2-2 2.5.1 5 .9 7.4 1.8 4.2 1.6 8.3 3.7 11.6 6.8 3.3 3.1 5.8 7.2 6.3 11.7.5 4.5-1.2 9.3-4.8 12.1-2.5 1.9-6.1 2.7-9 1.4-2.9-1.3-6.2-6-3.6-7.8-4 2.7-6.3 9.9-4.6 14.4 1.7 4.5 6.2 7.7 11 8.3 4.8.5 9.7-1.4 13.2-4.8 2.9-2.8 4.8-6.5 5.7-10.5.336-1.493.429-2.964.487-3.899l.013-.201z" fill="#fff"/></svg>
